X:422
T:
N:
S:Efter skollärare L. P. Boberg i Etelhem.
R:vals
O:Gotland, Etelhem
M:3/4
L:1/8
K:D
A2|B4 A2|F4 D2|f4 d2|A6|b4 a2|g4 c2|e4 d2|A6|B4 A2|F4 D2|f4 d2|A6|
b4 a2|g2 B2 c2|d2 dddd|d4::Ad|f2 ffff|(fe)(df)(ba)|f2 ffff|
(fe)(df)(ba)|g2 gggg|(ge)(ce)(ge)|d2 fedc|BAGFED|f2 ffff|
(fe)(df)(ba)|f2 ffff|(fe)(df)(ba)|g2 gggg|(ge)(cb)(ac)|
d2 dddd|d4::A2|f4 e2|d4 A2|B4 G2|E6|e4 d2|c4 B2|A4 G2|
F6|f4 e2|d4 A2|b4 a2|g4 f2|e4 d2|c2 B2 c2|d2 dddd|d2 z2:|

